packages/base/core/src/svg/system/warning_circle.svg

<?xml version="1.0" encoding="UTF-8"?>
<svg width="24px" height="24px" viewBox="0 0 24 24" version="1.1" xmlns="http://www.w3.org/2000/svg" xmlns:xlink="http://www.w3.org/1999/xlink">
    <!-- Generator: Sketch 57.1 (83088) - https://sketch.com -->
    <title>Icons/System/warning-circle</title>
    <desc>Created with Sketch.</desc>
    <g id="Icons/System/warning-circle" stroke="none" stroke-width="1" fill="none" fill-rule="evenodd">
        <path d="M13.0140403,3.24843986 C13.3071476,3.42085594 13.5514524,3.66516071 13.7238684,3.95826804 L21.9754518,17.9859597 C22.5354908,18.938026 22.2176899,20.1638295 21.2656236,20.7238684 C20.9582703,20.9046645 20.6081689,21 20.2515834,21 L3.74841664,21 C2.64384714,21 1.74841664,20.1045695 1.74841664,19 C1.74841664,18.6434144 1.84375216,18.293313 2.02454821,17.9859597 L10.2761316,3.95826804 C10.8361705,3.00620179 12.061974,2.68840089 13.0140403,3.24843986 Z M12,4.97230829 L3.74841664,19 L20.2515834,19 L12,4.97230829 Z M12.0684166,16.9969896 L12.0850024,16.9964029 C12.0677023,16.9978699 12.0503712,16.9988882 12.0330282,16.9994578 L12,17 L12,17 L12.0684166,16.9969896 Z M12,17 C11.9888734,17 11.9777892,16.9998183 11.9667503,16.9994576 C11.9495547,16.9988858 11.9321496,16.9978612 11.9147758,16.996384 C11.8929795,16.9945829 11.8712461,16.9920267 11.8497373,16.9887854 C11.8327915,16.9861473 11.8161027,16.9831877 11.7994833,16.9798025 C11.7784561,16.975611 11.7576898,16.9706765 11.7371855,16.965106 C11.7196452,16.9602745 11.7016611,16.954859 11.683811,16.9489267 C11.6664473,16.9431898 11.6497636,16.9371193 11.6332937,16.9306242 L11.576599,16.9062428 L11.576599,16.9062428 C11.5547964,16.8960049 11.5332887,16.8849663 11.5122503,16.8731893 C11.5015317,16.8672827 11.4909214,16.8610888 11.4804038,16.8546831 C11.4590495,16.841573 11.4381467,16.8277329 11.4178133,16.8131491 C11.4048869,16.8039771 11.3917355,16.79405 11.3787805,16.7837553 L11.2907646,16.7049705 L11.2907646,16.7049705 L11.2414166,16.6489896 L11.2894166,16.7039896 L11.2393764,16.6492704 L11.2393764,16.6492704 L11.2134166,16.6169896 L11.191254,16.588404 L11.191254,16.588404 C11.1766045,16.5681679 11.1627417,16.5475797 11.1496432,16.5264676 C11.1378566,16.5076511 11.1266275,16.4880991 11.1161127,16.4682677 C11.1083025,16.4534152 11.1007911,16.4383622 11.0936538,16.4230991 C11.0867408,16.4083727 11.0801931,16.3933887 11.0740302,16.3782845 C11.0646841,16.3554315 11.0562081,16.3322926 11.04858,16.3087717 C11.0445436,16.2961293 11.0406108,16.2830848 11.0369501,16.2699804 C11.0297717,16.2445948 11.0236733,16.2189183 11.0185854,16.1928801 C11.0161472,16.1799509 11.0139161,16.1672249 11.0119324,16.154468 L11.003616,16.0852242 L11,16 L11,16 C11,15.9888734 11.0001817,15.9777892 11.0005424,15.9667503 C11.0010947,15.9497336 11.0021564,15.9317345 11.0037021,15.9137692 C11.0057101,15.8900651 11.0084523,15.8674153 11.0119383,15.8450117 C11.0139161,15.8327751 11.0161472,15.8200491 11.0186256,15.807362 C11.0236733,15.7810817 11.0297717,15.7554052 11.0368379,15.7301329 L11.0487483,15.6908953 L11.0487483,15.6908953 C11.0562081,15.6677074 11.0646841,15.6445685 11.073972,15.6218476 C11.0801931,15.6066113 11.0867408,15.5916273 11.0936734,15.5767785 C11.1007911,15.5616378 11.1083025,15.5465848 11.1161764,15.5317536 L11.1497997,15.4731141 L11.1497997,15.4731141 C11.1627417,15.4524203 11.1766045,15.4318321 11.191193,15.4118064 C11.1982848,15.4019574 11.2055093,15.3924162 11.2129277,15.3829777 L11.2907357,15.2950411 L11.2907357,15.2950411 L11.3554166,15.2359896 L11.3664166,15.2259896 L11.3674166,15.2249896 L11.3684166,15.2239896 L11.4182204,15.1864634 L11.4182204,15.1864634 C11.4381467,15.1722671 11.4590495,15.158427 11.4804822,15.1453705 C11.4909214,15.1389112 11.5015317,15.1327173 11.5122285,15.1267352 C11.5332887,15.1150337 11.5547964,15.1039951 11.5767381,15.0937299 C11.5954049,15.0849726 11.6144279,15.0768053 11.6336374,15.0692553 C11.6497636,15.0628807 11.6664473,15.0568102 11.6833314,15.0511777 C11.7016611,15.045141 11.7196452,15.0397255 11.73774,15.0348268 C11.7576898,15.0293235 11.7784561,15.024389 11.7994617,15.020113 C11.8161027,15.0168123 11.8327915,15.0138527 11.8495323,15.0113186 L11.9174166,15.0029896 L12,15 L12,15 L12.019176,15.0001802 L12.019176,15.0001802 C12.0423713,15.0006212 12.0657121,15.0018758 12.0889942,15.0039437 C12.1089467,15.0056665 12.1286826,15.0080058 12.1482339,15.010911 C12.1661262,15.0136405 12.1844785,15.0168901 12.202746,15.0206542 L12.2607957,15.0343478 L12.2607957,15.0343478 C12.2788608,15.0392766 12.2975976,15.0448946 12.316189,15.0510733 C12.3335527,15.0568102 12.3502364,15.0628807 12.3667063,15.0693758 L12.423401,15.0937572 L12.423401,15.0937572 C12.4452036,15.1039951 12.4667113,15.1150337 12.4877497,15.1268107 C12.4984683,15.1327173 12.5090786,15.1389112 12.5195962,15.1453169 C12.5442623,15.1604445 12.5683006,15.176563 12.5915716,15.1936646 C12.6001539,15.1998864 12.6086509,15.2063472 12.6170661,15.2129621 L12.7071068,15.2928932 C12.7445828,15.3303693 12.7784626,15.3700798 12.808746,15.411596 C12.8233955,15.4318321 12.8372583,15.4524203 12.8503568,15.4735324 C12.8621434,15.4923489 12.8733725,15.5119009 12.8838873,15.5317323 C12.8916975,15.5465848 12.8992089,15.5616378 12.9063462,15.5769009 C12.9132592,15.5916273 12.9198069,15.6066113 12.9259698,15.6217155 L12.95142,15.6912283 L12.95142,15.6912283 C12.9554564,15.7038707 12.9593892,15.7169152 12.9630499,15.7300196 C12.9702283,15.7554052 12.9763267,15.7810817 12.9814146,15.8071199 C12.9838528,15.8200491 12.9860839,15.8327751 12.9880676,15.845532 L12.9962979,15.9137692 L12.9984166,15.9829896 L12.9974166,15.9399896 L12.9994829,15.9677454 L12.9994829,15.9677454 L12.9994483,16.0335352 L12.9994483,16.0335352 L12.996384,16.0852242 L12.996384,16.0852242 C12.9943899,16.109107 12.9916114,16.1321752 12.9880617,16.1549883 C12.9860839,16.1672249 12.9838528,16.1799509 12.9813744,16.192638 C12.9763267,16.2189183 12.9702283,16.2445948 12.9631621,16.2698671 L12.9512517,16.3091047 L12.9512517,16.3091047 C12.9437919,16.3322926 12.9353159,16.3554315 12.926028,16.3781524 C12.9198069,16.3933887 12.9132592,16.4083727 12.9063266,16.4232215 C12.8992089,16.4383622 12.8916975,16.4534152 12.8838236,16.4682464 C12.8733725,16.4880991 12.8621434,16.5076511 12.8502003,16.5268859 C12.8372583,16.5475797 12.8233955,16.5681679 12.808807,16.5881936 C12.8017152,16.5980426 12.7944907,16.6075838 12.7870723,16.6170223 L12.7071068,16.7071068 C12.6705872,16.7436264 12.6319457,16.7767309 12.5915792,16.8064203 C12.5683006,16.823437 12.5442623,16.8395555 12.5195178,16.8546295 C12.5090786,16.8610888 12.4984683,16.8672827 12.4877715,16.8732648 C12.4667113,16.8849663 12.4452036,16.8960049 12.4232619,16.9062701 C12.4045951,16.9150274 12.3855721,16.9231947 12.3663626,16.9307447 C12.3502364,16.9371193 12.3335527,16.9431898 12.3166686,16.9488223 C12.2975976,16.9551054 12.2788608,16.9607234 12.260005,16.9657809 L12.2035269,16.9792738 L12.2035269,16.9792738 C12.1844785,16.9831099 12.1661262,16.9863595 12.1477122,16.9890946 L12.0824166,16.9959896 L12.0804166,16.9959896 L12.0748017,16.9972404 L12.0684166,16.9969896 L12.0794166,16.9959896 L12,17 Z M11.3664166,15.2259896 L11.3554166,15.2359896 L11.2928932,15.2928932 L11.3538862,15.2366872 L11.3538862,15.2366872 L11.3664166,15.2259896 Z M11.9194166,15.0019896 L11.9174166,15.0029896 L11.9107499,15.0039664 L11.9194166,15.0019896 Z M12,15 L11.9314166,15.0019896 L11.945839,15.0014587 C11.9575463,15.0008276 11.9692625,15.0004013 11.9809819,15.0001797 L12,15 L12,15 Z M12,9 C12.5522847,9 13,9.44771525 13,10 L13,13 C13,13.5522847 12.5522847,14 12,14 C11.4477153,14 11,13.5522847 11,13 L11,10 C11,9.44771525 11.4477153,9 12,9 Z M11.3784075,15.2166092 L11.3684166,15.2239896 L11.3674166,15.2249896 L11.3784075,15.2166092 L11.3784075,15.2166092 Z" id="Color" fill="#0050D7"></path>
    </g>
</svg>

<svg xmlns="http://www.w3.org/2000/svg" width="24" height="24" viewBox="0 0 24 24">
    <path fill="#0050D7" fill-rule="evenodd" d="M13.014 3.248a2 2 0 0 1 .71.71l8.251 14.028A2 2 0 0 1 20.252 21H3.748a2 2 0 0 1-1.723-3.014l8.251-14.028a2 2 0 0 1 2.738-.71zM12 4.972L3.748 19h16.504L12 4.972zm.068 12.025h.017a1.006 1.006 0 0 1-.052.002L12 17l.068-.003zM12 17a1.018 1.018 0 0 1-.367-.07l-.056-.024a1.016 1.016 0 0 1-.198-.122l-.088-.079-.05-.056.048.055-.05-.055-.026-.032-.022-.029a1.045 1.045 0 0 1-.154-.318.959.959 0 0 1-.025-.116l-.008-.069L11 16a1.018 1.018 0 0 1 .037-.27l.012-.04a.96.96 0 0 1 .067-.158l.034-.059a1.05 1.05 0 0 1 .063-.09l.078-.088.064-.059.011-.01.001-.001.001-.001.05-.038a1.042 1.042 0 0 1 .32-.151.933.933 0 0 1 .112-.024l.067-.008L12 15h.02a1.006 1.006 0 0 1 .183.02l.058.014a1.069 1.069 0 0 1 .106.035l.056.025a1.016 1.016 0 0 1 .194.119l.09.08a1.008 1.008 0 0 1 .219.329l.025.07a1.11 1.11 0 0 1 .037.154l.008.068.002.069v-.043l.001.028v.066l-.003.051a.985.985 0 0 1-.033.185l-.012.04a.96.96 0 0 1-.164.307l-.08.09a1.008 1.008 0 0 1-.447.259l-.056.013a1.099 1.099 0 0 1-.056.01l-.066.007h-.002l-.005.001h-.007l.011-.001L12 17zm-.634-1.774l-.01.01-.063.057.06-.056.013-.011zm.553-.224l-.002.001-.006.001.008-.002zM12 15l-.069.002h.015L11.98 15H12zm0-6a1 1 0 0 1 1 1v3a1 1 0 0 1-2 0v-3a1 1 0 0 1 1-1zm-.622 6.217l-.01.007v.001l.01-.008z"/>
</svg>
